!!!OTL-incipit: ES ZOGEN ZWEI GRAFEN WOHL UEBER DEN RHEIN
!!!ARE: Europa, Mitteleuropa, Deutschland, Herzogtum Berg
!!!SCT: Z0093
!!!TXL: @@DE
!!!YEM: Copyright 1995, estate of Helmut Schaffrath.
**kern	**text
*ICvox	*
*M4/4	*
*met(c)	*
*k[f#c#g#]	*
*A:	*
!LO:TX:a:t=Bergiſch.	!
{4e	Es
=1	=1
4a	ʒo-
8a	-gen
8a	ʒwei
4a	Gra-
8b/	-fen
8b/	wohl
=2	=2
4cc#	ü-
8b	-ber
8b	den
4a}	Rhein,
{4e	es
=3	=3
4b/	ʒo-
8b/	-gen
8b/	ʒwei
4b/	Grafen
8cc#	.
8cc#	wohl
=4	=4
4dd	ü-
8cc#	-ber
8cc#	den
4b}	Rhein,
{4ee	ʒu
=5	=5
8cc#	Fuß
8cc#	und
8cc#	auch
8cc#	ʒu
8cc#L	Roß
8ee	.
8ddJ	.
8cc#	der
=6	=6
8b/	treuen
8a	.
8g#	Knappen
8a	.
4.b/}	Troß,
{8b/	ge-
=7	=7
4cc#	-ſchmückt
4cc#	gar
8eeL	blank
8dd	.
8cc#J	.
8b	und
=8	=8
(2cc#	rei-
2b)	.
=9	=9
2.a}	-ſig.
==	==
!!!AGN: Sagen - Lied, Romanze, Tod
!!!ONB: ESAC (Essen Associative Code) Database: ZUCCAL
!!!AMT: simple quadruple
!!!AIN: vox
!!!EED: Helmut Schaffrath
!!!EEV: 1.0
!!!GTL: I. Ernste Romanzen und Sagen.
!!!URL-scan: https://www.digitale-sammlungen.de/de/view/bsb11160571?page=184
!!!ENC: Anna Maria Matuszewska
!!!EEV: 2025/01/27
*-	*-
